packages/icons/src/components/Icon/assets/small-outline/credit-card.svg

<svg width="16" height="16" viewBox="0 0 16 16" fill="none" xmlns="http://www.w3.org/2000/svg">
<path fill-rule="evenodd" clip-rule="evenodd" d="M1 4.54943C1 3.40596 1.92696 2.479 3.07042 2.479H12.9296C14.073 2.479 15 3.40596 15 4.54943V11.4508C15 12.5943 14.073 13.5213 12.9296 13.5213H3.07042C1.92696 13.5213 1 12.5943 1 11.4508V4.54943ZM2.1831 6.61985V11.4508C2.1831 11.9409 2.58037 12.3382 3.07042 12.3382H12.9296C13.4196 12.3382 13.8169 11.9409 13.8169 11.4508V6.61985H2.1831ZM13.8169 4.94379H2.1831V4.54943C2.1831 4.05937 2.58037 3.6621 3.07042 3.6621H12.9296C13.4196 3.6621 13.8169 4.05937 13.8169 4.54943V4.94379ZM2.97183 9.479C2.97183 9.1523 3.23668 8.88745 3.56338 8.88745H7.50704C7.83375 8.88745 8.09859 9.1523 8.09859 9.479C8.09859 9.80571 7.83375 10.0706 7.50704 10.0706H3.56338C3.23668 10.0706 2.97183 9.80571 2.97183 9.479ZM2.97183 10.9579C2.97183 10.6312 3.23668 10.3663 3.56338 10.3663H5.53521C5.86192 10.3663 6.12676 10.6312 6.12676 10.9579C6.12676 11.2846 5.86192 11.5494 5.53521 11.5494H3.56338C3.23668 11.5494 2.97183 11.2846 2.97183 10.9579Z" fill="black"/>
</svg>

<svg xmlns="http://www.w3.org/2000/svg" width="16" height="16" fill="none" viewBox="0 0 16 16">
    <path d="M1 4.55a2.07 2.07 0 0 1 2.07-2.071h9.86A2.07 2.07 0 0 1 15 4.549v6.902a2.07 2.07 0 0 1-2.07 2.07H3.07A2.07 2.07 0 0 1 1 11.451zm1.183 2.07v4.83c0 .49.397.888.887.888h9.86c.49 0 .887-.397.887-.887V6.62zm11.634-1.676H2.183v-.395c0-.49.397-.887.887-.887h9.86c.49 0 .887.397.887.887zM2.972 9.479c0-.327.265-.592.591-.592h3.944a.592.592 0 1 1 0 1.184H3.563a.59.59 0 0 1-.591-.592m0 1.479c0-.327.265-.592.591-.592h1.972a.592.592 0 0 1 0 1.183H3.563a.59.59 0 0 1-.591-.591" clip-rule="evenodd"/>
</svg>
